images/files/arrow-down.svg

<svg width="21" height="21" viewBox="0 0 21 21" fill="none" xmlns="http://www.w3.org/2000/svg">
<g clip-path="url(#clip0_1_810)">
<path d="M19.3594 12.8379V18.5391C19.3594 18.9914 18.9914 19.3594 18.5391 19.3594H2.46094C2.00862 19.3594 1.64062 18.9914 1.64062 18.5391V12.8379H0V18.5391C0 19.896 1.10398 21 2.46094 21H18.5391C19.896 21 21 19.896 21 18.5391V12.8379H19.3594Z" fill="#F3A800"/>
<path d="M14.4374 9.66804L11.3202 12.7852V0H9.67962V12.7852L6.56243 9.66804L5.40234 10.8281L10.4999 15.9257L15.5975 10.8281L14.4374 9.66804Z" fill="#F3A800"/>
</g>
<defs>
<clipPath id="clip0_1_810">
<rect width="21" height="21" fill="white"/>
</clipPath>
</defs>
</svg>

<svg width="21" height="21" fill="none" xmlns="http://www.w3.org/2000/svg"><g clip-path="url(#a)" fill="#F3A800"><path d="M19.36 12.84v5.7c0 .45-.37.82-.82.82H2.46a.82.82 0 0 1-.82-.82v-5.7H0v5.7C0 19.9 1.1 21 2.46 21h16.08C19.9 21 21 19.9 21 18.54v-5.7h-1.64Z"/><path d="m14.44 9.67-3.12 3.12V0H9.68v12.79L6.56 9.67 5.4 10.83l5.1 5.1 5.1-5.1-1.16-1.16Z"/></g><defs><clipPath id="a"><path fill="#fff" d="M0 0h21v21H0z"/></clipPath></defs></svg>
